X:1
T:Title
%%score { 1 | ( 2 3 ) }
L:1/8
Q:1/4=100
M:4/4
K:G
V:1 treble nm="Grand Piano"
V:2 bass 
V:3 bass 
V:1
 [DB]2 D2 E>[DF] [DG]>[B,G] | A3 B A4 | [Fd]2 G2 c>c B>B | A6 z2 | [DB]2 D2 E>[DF] [DG]>[B,G] | %5
w: T.~E.~Perkins * * * * *|||||
 A3 B A4 | B2 B2 [Dd]>[Ec] [DB]>[CFA] | [B,G]6 z2 | A2 A2 F>G [FA]>[GB] | [FA]3 F D4 | %10
w: |||||
 c2 c2 B>c d>B | [FA]6 z2 | [DB]2 D2 E>[DF] [DG]>[B,G] | A3 B A4 | B2 B2 [Dd]>[Ec] [DB]>[CFA] | %15
w: |||||
 [B,G]6 z2 |] %16
w: |
V:2
 [G,,G,]2 [B,,G,]2 [C,G,C]>[C,A,] [B,,G,]>[G,,G,] | [D,D]3- [D,G,D] [D,F,D]4 | %2
 [D,A,]2 [G,B,]2 [F,A,D]>[F,A,D] [G,D]>[G,D] | [D,F,D]6 z2 | %4
 [G,,G,]2 [B,,G,]2 [C,G,C]>[C,A,] [B,,G,]>[G,,G,] | [D,D]3- [D,G,D] [D,F,D]4 | %6
 [G,D]2 [G,D]2 [B,,G,]>[C,G,] [D,G,]>D, | G,,6 z2 | %8
 [D,F,D]2 [D,F,D]2 [D,A,D]>[D,B,D] [D,C]>[D,B,] | D3 [A,D] [D,F,]4 | %10
 [F,A,D]2[K:treble] [A,DF]2 [G,DG]>[G,A,G] [G,B,G]>[G,DG] | [D,D]6 z2 | %12
 [G,,G,]2 [B,,G,]2 [C,G,C]>[C,A,] [B,,G,]>[G,,G,] | [D,D]3- [D,G,D] [D,F,D]4 | %14
 [G,D]2 [G,D]2 [B,,G,]>[C,G,] [D,G,]>D, | G,,6 z2 |] %16
V:3
 x8 | F,4 z4 | x8 | x8 | x8 | F,4 z4 | x8 | x8 | x8 | D,4 z4 | x2[K:treble] x6 | x8 | x8 | F,4 z4 | %14
 x8 | x8 |] %16

